src/git-pull-request.svg

<svg width="24" height="24" viewBox="0 0 24 24" xmlns="http://www.w3.org/2000/svg">
<path fill-rule="evenodd" clip-rule="evenodd" d="M7.39846 8.04C6.60646 8.04 5.95846 7.38 5.95846 6.6C5.95846 5.82 6.61846 5.16 7.39846 5.16C8.17846 5.16 8.83846 5.82 8.83846 6.6C8.83846 7.38 8.17846 8.04 7.39846 8.04M8.83846 18.6C8.83846 19.392 8.17846 20.04 7.39846 20.04C6.61846 20.04 5.95846 19.38 5.95846 18.6C5.95846 17.8188 6.61846 17.16 7.39846 17.16C8.17846 17.16 8.83846 17.8188 8.83846 18.6M9.79846 6.6C9.79846 5.268 8.73046 4.2 7.39846 4.2C6.07726 4.1964 5.00446 5.2644 5.00086 6.5856C4.99846 7.4424 5.45566 8.2356 6.19846 8.664V16.536C5.05366 17.1948 4.66006 18.6576 5.32006 19.8024C5.74846 20.5452 6.54046 21.0024 7.39846 21C8.71966 21.0036 9.79246 19.9356 9.79606 18.6156C9.79846 17.7576 9.34126 16.9644 8.59846 16.536V8.664C9.30646 8.256 9.79846 7.488 9.79846 6.6M16.9985 20.04C16.2065 20.04 15.5585 19.38 15.5585 18.6C15.5585 17.8188 16.2185 17.16 16.9985 17.16C17.7785 17.16 18.4385 17.8188 18.4385 18.6C18.4385 19.38 17.7785 20.04 16.9985 20.04M18.1985 16.536V9C18.1625 8.064 17.7905 7.236 17.0705 6.528C16.3505 5.82 15.5345 5.436 14.5985 5.4H13.3985V3L9.79846 6.6L13.3985 10.2V7.8H14.5985C14.9225 7.824 15.1745 7.932 15.4265 8.172C15.6785 8.412 15.7865 8.676 15.7985 9V16.536C14.6537 17.1948 14.2613 18.6576 14.9201 19.8024C15.3473 20.5452 16.1405 21.0024 16.9985 21C18.3197 21.0036 19.3925 19.9356 19.3961 18.6156C19.3985 17.7576 18.9413 16.9644 18.1985 16.536" fill="currentColor"/>
</svg>

<svg width="24" height="24" viewBox="0 0 24 24" xmlns="http://www.w3.org/2000/svg" xmlns:xlink="http://www.w3.org/1999/xlink">
  <path d="M7.398 8.04c-.792 0-1.44-.66-1.44-1.44 0-.78.66-1.44 1.44-1.44.78 0 1.44.66 1.44 1.44 0 .78-.66 1.44-1.44 1.44m1.44 10.56c0 .792-.66 1.44-1.44 1.44-.78 0-1.44-.66-1.44-1.44 0-.781.66-1.44 1.44-1.44.78 0 1.44.659 1.44 1.44m.96-12c0-1.332-1.068-2.4-2.4-2.4a2.391 2.391 0 0 0-1.2 4.464v7.872A2.39 2.39 0 0 0 7.398 21a2.39 2.39 0 0 0 1.2-4.464V8.664a2.386 2.386 0 0 0 1.2-2.064m7.2 13.44c-.792 0-1.44-.66-1.44-1.44 0-.781.66-1.44 1.44-1.44.78 0 1.44.659 1.44 1.44 0 .78-.66 1.44-1.44 1.44m1.2-3.504V9c-.036-.936-.408-1.764-1.128-2.472S15.534 5.436 14.598 5.4h-1.2V3l-3.6 3.6 3.6 3.6V7.8h1.2c.324.024.576.132.828.372s.36.504.372.828v7.536a2.392 2.392 0 0 0 1.2 4.464 2.39 2.39 0 0 0 1.2-4.464" fill="currentColor"/>
</svg>
